rospo-newyear-dark/symbolic/status/weather-few-clouds-night-symbolic.svg

<svg height="16" width="16" xmlns="http://www.w3.org/2000/svg"><path d="m13.5 16c1.38 0 2.5-1.12 2.5-2.5 0-1.27-.96-2.31-2.19-2.47-.4-1.17-1.5-2.03-2.81-2.03s-2.4.86-2.81 2.03c-1.23.16-2.19 1.2-2.19 2.47 0 1.38 1.12 2.5 2.5 2.5" fill="#d3dae3"/><path d="m8 1c-3.8855-.001-7 3.134-7 7 0 2.841 1.6956 5.28 4.127 6.377-.0744-.282-.127-.573-.127-.877 0-1.191.6566-2.152 1.5957-2.742-.9914-1.1412-1.5957-2.6277-1.5957-4.258.0014-2.233 1.1294-4.31 3-5.5z" fill="#d3dae3"/></svg>

<svg xmlns="http://www.w3.org/2000/svg" width="16" height="16" version="1.1">
 <path style="fill:#d3dae3" d="M 13.5,16 C 14.88,16 16,14.88 16,13.5 16,12.23 15.04,11.19 13.81,11.03 13.41,9.86 12.31,9 11,9 9.69,9 8.6,9.86 8.19,11.03 6.96,11.19 6,12.23 6,13.5 6,14.88 7.12,16 8.5,16"/>
 <path style="fill:#d3dae3" d="M 8,1 C 4.1145,0.999 1,4.134 1,8 1,10.841 2.6956,13.28 5.127,14.377 5.0526,14.095 5,13.804 5,13.5 5,12.309 5.6566,11.348 6.5957,10.758 5.6043,9.6168 5,8.1303 5,6.5 5.0014,4.267 6.1294,2.19 8,1 Z"/>
</svg>
